X:1
T:Complainte
T:Complainte
T:pour Clarinette en La et Piano
T:L. Sardain
T:by Mutopia-2005/02/25-507 - Public Domain
T:by Mutopia-2005/02/25-507 - Public Domain
C:L. Sardain
Z:by Mutopia-2005/02/25-507 - Public Domain
%%score 1 { ( 2 5 ) | ( 3 4 ) }
L:1/8
Q:1/4=90
M:6/8
K:C
V:1 treble transpose=-3 nm="A Clarinet"
V:2 treble nm="Piano"
V:5 treble 
V:3 bass 
V:4 bass 
V:1
[K:C]"^Andante" z2!mp! (A A2 ^G | ^G3 ^E2) z | z2 (=G G2 F | ^F3 c2) z | z2!<(! (B B2 g | %5
 g2 f f2 ^d |!f!!>(! ^d6!<)! | e3)!>)! z3 | z2 (c c2 B | B3 d2) z | z2 (A A2 ^G | ^G3 B2) z | %12
 z2!p! (D E2 F | c2 B A2 ^G |!<(! F6- | F3) z3!<)! | z3!mf! (F3- | F2 ^F ^G2 A | ^g2 f ^c3- | %19
 c3 =c2) z | z3!f! (g3- | gg^a b=ag | ^f2 ^a b3- | b3 b2) z |"_cresc." z3 (b3 | c'3 d'3 | %26
 g'3- g'2 f' | ^g'3 f'3 |!>(! e'6- | e'6- | e'6- | e'3) z3!>)! | z3 (e3 | d3 c3 | B6- | B3) z3 | %36
 z3 (c3 | B3 A3 | ^G6- | G3) z3 | z3!p! (A3 | G3 F3 | E3 D3 | E3 F3) |!pp! F6- | F6 | z6 | z6 | %48
 z2 (A A2 ^G | ^G3 F2) z | z2 (A A2 ^G | ^G3- G2) z | z2 A- A3- | A6- | A6- | A6 |] %56
V:2
 z6 | z6 | z6 | z6 | z6 | z6 | z3 z2 ^D | ^D2 =D D3 | z6 | z6 | z6 | z6 | z6 | z6 | z6 | z6 | %16
 z2 ^A, ^F2 A, | z2 ^A, ^F2 A, | z2 B, ^E2 B, | z2 B, ^E2 B, | z2 ^G, E2 G | e2 ^G E2 ^G, | %22
 z2 A, ^D2 A | ^d2 ^D ^FDA, | z6 | ^F^GB d^f^g | [bd']^f[^gb] d[fg]B | [d^f]^G[Bd] ^F[GB]D | %28
[K:bass] ^C^G,^E, ^C,E,G, | ^CA,^F, ^C,F,A, | ^C^A,G, ^C,G,A, | ^CB,^G, ^C,3 | z!p! ^C!<(!C CDD | %33
 D^C[A,C] CDD |!>(! D!<)!^CC CDD | D^CC C3!>)! | z!<(! DD DEE | EDD DEE | E!>(!D!<)!D DEE | %39
 EDD D3!>)! |[K:treble] z [D^F][DF] [DF][E^G][EG] | [E^G][D^F][DF] [DF]3 | %42
 z [^FA][FA] [FA][^G^c][Gc] | [^G^c][^FA][FA] [FA]3 | z [^Ge][Ge] [Ge][^A^e][Ae] | %45
 [^A^e][^Gd][Gd] [Gd]3 | z [^G^e][Ge] [Ge][d^a][da] | [^^c^a]6 | z6 | z6 | z6 | z6 | z6 | z6 | z6 | %55
 z6 |] %56
V:3
 ^A,3- A,=A,^A, | B,6 | ^G,3- G,^^F,G, | A,3 ^F,3 | [B,,D,^F,^G,]6 | [^G,,^F,B,]6 | [^C,^E,B,]6- | %7
 [C,E,B,]6 | ^C3- C=C^C | D6 | A,3- A,^G,A, | B,6 | [B,,A,]6- | [B,,A,]6 | ^G,6- | G,6 | %16
 ^F,2 ^D, ^A,2 D, | ^F,2 ^D, ^A,2 D, | ^E,2 ^^D, B,2 ^^D, | ^E,2 D, B,2 D, | E,2 ^C, ^G,3 | %21
 z3 ^G,2 ^C, | ^D,2 ^C, A,2 C | z2 C A,2 C, | z D,^F, ^G,B,D | z6 | ^G,,,3 B,3 | ^F,3 D,3 | ^C,,6 | %29
 ^^C,,6 | ^D,,3 ^^D,,3 | ^E,,3- E,, z2 | ^C,3 D,3 | ^C,3 D,3 | ^C,3 D,3 | ^C,3 D,3 | A,,3 B,,3 | %37
 A,,3 B,,3 | A,,3 B,,3 | A,,3 B,,3 | z3 A,3 | ^G,6 | E,3 D,3 | E,3 ^F,3 | ^A,,3 ^E,3 | ^A,3 ^E,3 | %46
[K:treble] ^A,3 ^E3 | B6 |[K:bass] ^A,3- A,^^G,A, | B,6 | ^A,3- A,=A,^A, | B,6 | [^D,^A,]6- | %53
 [D,A,]6 | z6 | z6 |] %56
V:4
 ^D,6- | D,3- D,2 =D, | ^C,6 | =C,6 | x6 | x6 | x6 | x6 | ^F,6- | F,3 ^E,3 | D,6- | D,3 ^C,3 | x6 | %13
 x6 | ^A,,6- | A,,3 ^A,,,3 | ^D,,2 x4 | ^D,,2 x4 | ^^C,,2 x4 | ^^C,,2 x4 | ^C,,2 x4 | x6 | %22
 ^C,,2 x4 | x6 | B,,,2 B,, D,2 ^F, | x6 | x6 | x6 | x6 | x6 | x6 | x6 | ^F,,6- | F,,6 | ^E,,6- | %35
 E,,6 | D,,6- | D,,6 | ^C,,6- | C,,6 | B,,,6- | B,,,6 | B,,6- | B,,6 | x6 | x6 |[K:treble] x6 | %47
 x6 |[K:bass] ^D,6- | D,3- D,2 =D, | D,6- | D,6 | x6 | x6 | x6 | x6 |] %56
V:5
 x6 | x6 | x6 | x6 | x6 | x6 | x6 | x6 | x6 | x6 | x6 | x6 | x6 | x6 | x6 | x6 | x6 | x6 | x6 | %19
 x6 | x5 ^C | ^G2 ^C x3 | x6 | A2 x4 | x6 | B,D^F ^GBd | x6 | x6 |[K:bass] x6 | x6 | x6 | x6 | %32
 x A,A, A,2 A, | A,3 A,2 A, | ^G,2 G, G,2 G, | ^G,2 G, G,3 | x ^F,F, F,2 F, | ^F,2 F, F,2 F, | %38
 ^E,2 E, E,2 E, | ^E,2 E, E,3 |[K:treble] x6 | x6 | x6 | x6 | x6 | x6 | x6 | x6 | x6 | x6 | x6 | %51
 x6 | x6 | x6 | x6 | x6 |] %56

